src/components/Icon/assets/heart-filled.svg

<svg width="24" height="24" viewBox="0 0 24 24" fill="none" xmlns="http://www.w3.org/2000/svg">
<path fill-rule="evenodd" clip-rule="evenodd" d="M20.3351 5.4669V5.4669C19.9291 5.0609 19.3961 4.7359 18.8191 4.4749C16.4261 3.3929 13.2961 4.1809 12.0001 6.6329C10.7031 4.1809 7.5731 3.3929 5.1811 4.4749C4.6041 4.7359 4.0711 5.0609 3.6651 5.4669C1.5121 7.6199 1.4601 10.8949 3.4321 13.2649C5.5551 15.8159 9.1511 19.1709 11.3351 21.1429C11.7151 21.4869 12.2841 21.4869 12.6651 21.1429C14.8491 19.1709 18.4451 15.8159 20.5681 13.2649C22.5391 10.8949 22.4881 7.6199 20.3351 5.4669" fill="#65676A"/>
</svg>

<svg xmlns="http://www.w3.org/2000/svg" width="24" height="24" viewBox="0 0 24 24">
    <path fill="#65676A" fill-rule="evenodd" d="M20.335 5.467c-.406-.406-.939-.731-1.516-.992C16.426 3.393 13.296 4.18 12 6.633c-1.297-2.452-4.427-3.24-6.819-2.158-.577.26-1.11.586-1.516.992-2.153 2.153-2.205 5.428-.233 7.798 2.123 2.55 5.72 5.906 7.903 7.878.38.344.95.344 1.33 0 2.184-1.972 5.78-5.327 7.903-7.878 1.971-2.37 1.92-5.645-.233-7.798"/>
</svg>
